assets/ai/ai-publons-square.svg

<svg xmlns="http://www.w3.org/2000/svg" width="100%" height="100%" viewBox="-75.52 -43.52 599.04 599.04"><path d="M 48 32 C 21.5 32 0 53.5 0 80 L 0 432 C 0 458.5 21.5 480 48 480 L 400 480 C 426.5 480 448 458.5 448 432 L 448 80 C 448 53.5 426.5 32 400 32 L 48 32 z M 185.37109 96.011719 C 186.72859 96.153262 187.58238 97.507213 188.46094 98.451172 C 190.42096 107.0379 190.93933 115.8895 192.61133 124.54297 C 196.10188 120.53362 199.87293 116.76299 204.12109 113.54297 C 223.89042 98.328413 250.75732 91.971278 274.99609 98.673828 C 291.1254 103.09517 304.65186 114.06911 314.89453 127.00391 C 319.19193 132.59484 323.03857 138.60353 325.72266 145.15039 L 325.7207 145.15039 C 330.56205 156.66113 332.04527 169.26619 332.10547 181.66211 C 332.41754 199.65297 329.33823 217.79978 322.34766 234.42383 C 313.52249 255.63326 297.89463 274.28994 277.5332 285.22461 C 261.37036 294.09135 242.49001 297.71445 224.16992 295.95312 C 213.62316 295.0227 203.10846 292.7508 193.42578 288.38672 C 193.50854 311.78549 193.86317 335.17763 194.11914 358.56836 C 194.50596 369.09106 193.73958 379.75383 195.81445 390.14453 C 196.51446 392.9194 197.42212 396.08199 200.02344 397.66211 C 202.63279 399.11937 205.74518 398.69874 208.60938 398.77344 C 213.53347 398.82414 218.45676 398.60067 223.38086 398.85547 C 224.94494 398.85547 226.78125 399.71166 226.81445 401.51562 C 227.0864 405.57566 227.13599 409.69955 226.78125 413.76758 C 226.3864 416.03123 223.57004 416.00705 221.7832 415.99805 C 199.03374 414.62356 176.22706 414.22196 153.4375 414.66602 C 141.51626 414.80602 129.6013 415.6703 117.67969 415.98242 C 117.09453 415.26637 115.9588 414.77181 115.9668 413.72656 C 115.79466 409.91481 115.91649 406.10292 115.90039 402.29883 C 115.79393 400.86711 116.39444 399.01247 118.09961 398.94727 C 124.47987 398.37902 130.92705 399.11239 137.31641 398.61914 C 141.58208 397.84584 143.81974 393.48064 144.51172 389.57812 C 145.8545 381.28741 145.3122 372.85742 145.74023 364.5 C 145.76533 298.35165 145.73976 232.19561 145.75586 166.04688 C 145.74786 164.22833 145.68768 162.41725 145.51562 160.61328 C 145.12769 155.16272 142.86532 149.74481 138.58398 146.2207 C 133.81701 142.11146 127.96077 139.60177 122.52734 136.54688 C 120.45941 135.28687 117.91574 134.21628 116.89453 131.87891 C 116.57446 129.49889 116.54914 127.03802 116.91992 124.66602 C 118.05597 122.89523 120.27978 122.45938 122.05859 121.61133 C 138.90431 114.29263 155.70133 106.84966 172.55469 99.521484 C 176.4667 97.924234 180.45898 96.11405 184.75781 96.03125 C 184.97383 95.997251 185.17717 95.991498 185.37109 96.011719 z M 233.30859 122.64062 C 230.99669 122.57527 228.67879 122.70838 226.38477 123.04492 C 213.4992 124.81571 201.14753 131.70468 193.54883 142.35938 C 193.26083 176.02636 193.52588 209.71951 193.41797 243.39453 C 193.31006 251.1252 195.41993 259.35103 201.0918 264.90039 C 207.72107 270.6233 215.58266 275.07587 224.24414 276.78906 C 235.40012 279.00248 247.74281 279.70194 258.01758 273.98047 C 270.19621 267.45914 277.54916 254.68235 281.17969 241.74609 C 286.95183 220.9563 285.79737 198.88295 281.66406 177.9043 C 278.20522 161.93869 272.31179 145.62771 260.37305 133.99414 C 253.21443 126.91016 243.32683 122.92383 233.30859 122.64062 z"/></svg>

<svg xmlns="http://www.w3.org/2000/svg" width="100%" height="100%" viewBox="-75.52 -43.52 599.04 599.04"><path d="M48 32C21.5 32 0 53.5 0 80v352c0 26.5 21.5 48 48 48h352c26.5 0 48-21.5 48-48V80c0-26.5-21.5-48-48-48H48zm137.371 64.012c1.358.141 2.211 1.495 3.09 2.44 1.96 8.586 2.478 17.438 4.15 26.091 3.49-4.01 7.262-7.78 11.51-11 19.77-15.215 46.636-21.572 70.875-14.87 16.13 4.422 29.656 15.396 39.899 28.33 4.297 5.592 8.144 11.6 10.828 18.147h-.002c4.841 11.511 6.324 24.116 6.384 36.512.313 17.991-2.767 36.138-9.757 52.762-8.826 21.21-24.453 39.866-44.815 50.8-16.163 8.867-35.043 12.49-53.363 10.73-10.547-.931-21.062-3.203-30.744-7.567.083 23.398.437 46.79.693 70.181.387 10.523-.38 21.186 1.695 31.577.7 2.774 1.608 5.937 4.21 7.517 2.609 1.457 5.721 1.037 8.585 1.111 4.924.051 9.848-.172 14.772.082 1.564 0 3.4.857 3.433 2.66.272 4.06.322 8.185-.033 12.253-.395 2.263-3.211 2.24-4.998 2.23-22.75-1.374-45.556-1.776-68.345-1.332-11.922.14-23.837 1.004-35.758 1.316-.585-.716-1.721-1.21-1.713-2.255-.172-3.812-.05-7.624-.067-11.428-.106-1.432.494-3.287 2.2-3.352 6.38-.568 12.827.165 19.216-.328 4.266-.773 6.504-5.138 7.196-9.04 1.343-8.292.8-16.722 1.228-25.079.025-66.148 0-132.304.016-198.453-.008-1.819-.068-3.63-.24-5.434-.388-5.45-2.65-10.868-6.932-14.392-4.767-4.11-10.623-6.62-16.057-9.674-2.068-1.26-4.611-2.33-5.632-4.668-.32-2.38-.346-4.841.025-7.213 1.136-1.77 3.36-2.207 5.139-3.055 16.845-7.318 33.642-14.761 50.496-22.09 3.912-1.597 7.904-3.407 12.203-3.49.216-.034.42-.04.613-.02zm47.938 26.629a39.937 39.937 0 00-6.924.404c-12.886 1.77-25.237 8.66-32.836 19.314-.288 33.667-.023 67.36-.131 101.036-.108 7.73 2.002 15.956 7.674 21.505 6.63 5.723 14.49 10.176 23.152 11.89 11.156 2.212 23.499 2.912 33.774-2.81 12.178-6.52 19.531-19.298 23.162-32.234 5.772-20.79 4.617-42.863.484-63.842-3.459-15.965-9.352-32.276-21.291-43.91-7.159-7.084-17.046-11.07-27.064-11.353z"/></svg>
